X: 609
T: Good for the Tongue
B: jims roots
M:C|
L:1/8
R: Reel
Q: 1/4=100
K:Bb
V:1 
%N:From the playing of fiddler Bob Walters (1889-1960,
%N:Burt County, eastern Nebraska)
%D:MSOTFSA 106, Bob Walters &#8211; "Drunken Wagner."
%D:http://www.slippery-hill.com/recording/good-tongue
(3FGA | "Bb"Bcde fBAB | "Eb"gBaB "Bb"bBAB | "Eb"GeFd "Bb"EcAB | "Cm"cdec "F"BAGA |
        "Bb"Bcde fBAB | "Eb"gBaB "Bb"bBAB | "Eb"GeFd "Bb"EcAB | "F"dcBA "Bb"B2 :|
|: de | "Bb"fBAB gBAB | "Eb"babf "Bb"gfdB | "Eb"efgf "Bb"edcB | "Cm"Bf=ef "F"_ecAF |
        "Bb"Bcde fBAB | "Eb"gBaB "Bb"bBAB | "Eb"GABG "Bb"FBAB | "F"dcBA "Bb"B2 :|]
% abcbook-tune_id 6298c25d0f62e0821aba8d61


% abcbook-boost 0
% abcbook-tablature 
% abcbook-transpose 
% abcbook-lastupdated 1654178398337
% abcbook-soundfonts 
% abcbook-repeats 1


